Adwaita++-Dark/actions/22/go-previous.svg

<svg height="22" width="22" xmlns="http://www.w3.org/2000/svg">
  <path d="m14 7h-8l3.5-3.5-1.5-1.5-6 6 6 6 1.5-1.5-3.5-3.5h8z" fill="#e6ddff" transform="translate(3 3)"/>
</svg>

<svg xmlns="http://www.w3.org/2000/svg" width="22" height="22" version="1.1">
 <defs>
  <style id="current-color-scheme" type="text/css">
   .ColorScheme-Text { color:#E6DDFF; } .ColorScheme-Highlight { color:#4285f4; }
  </style>
 </defs>
 <g transform="matrix(1,0,0,1,3,3)">
  <path class="ColorScheme-Text" d="M 14,7 H 6 L 9.5,3.5 8,2 2,8 8,14 9.5,12.5 6,9 H 14 Z" style="fill:currentColor"/>
 </g>
</svg>
